src/images/svg/markets/trade-new.svg

<svg width="32" height="33" viewBox="0 0 32 33" fill="none" xmlns="http://www.w3.org/2000/svg">
<path fill-rule="evenodd" clip-rule="evenodd" d="M0.000244141 11.087C0.000244141 10.5335 0.220118 10.0026 0.611498 9.61126C1.00288 9.21987 1.5337 9 2.0872 9H25.8994C26.4529 9 26.9837 9.21987 27.3751 9.61126C27.7665 10.0026 27.9863 10.5335 27.9863 11.087V14.6209H0.000244141V11.087ZM24.675 12.9374C24.8828 12.9374 25.0859 12.8758 25.2586 12.7604C25.4314 12.6449 25.566 12.4809 25.6455 12.2889C25.725 12.097 25.7458 11.8858 25.7053 11.682C25.6647 11.4783 25.5647 11.2911 25.4178 11.1442C25.2709 10.9973 25.0837 10.8972 24.88 10.8567C24.6762 10.8162 24.465 10.837 24.273 10.9165C24.0811 10.996 23.917 11.1306 23.8016 11.3034C23.6862 11.4761 23.6246 11.6792 23.6246 11.887C23.6264 12.165 23.7377 12.4311 23.9343 12.6277C24.1309 12.8243 24.397 12.9356 24.675 12.9374ZM21.2872 12.9374C21.495 12.9374 21.698 12.8758 21.8708 12.7604C22.0435 12.6449 22.1782 12.4809 22.2577 12.2889C22.3372 12.097 22.358 11.8858 22.3174 11.682C22.2769 11.4783 22.1769 11.2911 22.03 11.1442C21.8831 10.9973 21.6959 10.8972 21.4921 10.8567C21.2884 10.8162 21.0772 10.837 20.8852 10.9165C20.6933 10.996 20.5292 11.1306 20.4138 11.3034C20.2984 11.4761 20.2368 11.6792 20.2368 11.887C20.2368 12.0249 20.2639 12.1615 20.3167 12.2889C20.3695 12.4164 20.4469 12.5322 20.5444 12.6297C20.642 12.7273 20.7578 12.8046 20.8852 12.8574C21.0127 12.9102 21.1493 12.9374 21.2872 12.9374ZM17.9063 12.9374C18.1141 12.9374 18.3172 12.8758 18.4899 12.7604C18.6627 12.6449 18.7973 12.4809 18.8768 12.2889C18.9563 12.097 18.9771 11.8858 18.9366 11.682C18.896 11.4783 18.796 11.2911 18.6491 11.1442C18.5022 10.9973 18.315 10.8972 18.1113 10.8567C17.9075 10.8162 17.6963 10.837 17.5043 10.9165C17.3124 10.996 17.1483 11.1306 17.0329 11.3034C16.9175 11.4761 16.8559 11.6792 16.8559 11.887C16.8577 12.165 16.969 12.4311 17.1656 12.6277C17.3622 12.8243 17.6283 12.9356 17.9063 12.9374ZM0 23.6473V30.0155C0 30.569 0.219875 31.0998 0.611255 31.4912C1.00264 31.8826 1.53346 32.1024 2.08696 32.1024H25.8991C26.4526 32.1024 26.9834 31.8826 27.3748 31.4912C27.7662 31.0998 27.9861 30.569 27.9861 30.0155V15.5876H0V21.9807H2.95533L6.50933 26.542L12.1267 17L16.872 22.8287H20.738C21.0947 22.0473 21.9333 21.5327 22.8773 21.6807C23.698 21.8093 24.3787 22.474 24.5227 23.2913C24.7453 24.5567 23.7787 25.6553 22.5547 25.6553C21.7513 25.6553 21.0633 25.1787 20.7453 24.4953H16.0787L12.3473 19.9107L6.70133 29.5L2.14067 23.6473H0Z" fill="#85ACB0"/>
<g style="mix-blend-mode:multiply">
<path fill-rule="evenodd" clip-rule="evenodd" d="M24 0C19.582 0 16 3.58133 16 8C16 12.418 19.582 16 24 16C28.418 16 32 12.418 32 8C32 3.58133 28.418 0 24 0Z" fill="#FF444F"/>
</g>
<path fill-rule="evenodd" clip-rule="evenodd" d="M22.8672 11.3352L20 8.468L21.2016 7.2664L22.8672 8.932L26.7984 5L28 6.2016L22.8672 11.3352Z" fill="white"/>
</svg>

<svg width="32" height="33" fill="none" xmlns="http://www.w3.org/2000/svg"><path fill-rule="evenodd" clip-rule="evenodd" d="M0 11.087A2.087 2.087 0 0 1 2.087 9H25.9a2.087 2.087 0 0 1 2.087 2.087v3.534H0v-3.534Zm24.675 1.85a1.05 1.05 0 1 0-1.05-1.05 1.057 1.057 0 0 0 1.05 1.05Zm-3.388 0a1.05 1.05 0 1 0 0-2.1 1.05 1.05 0 0 0 0 2.1Zm-3.38 0a1.05 1.05 0 1 0-1.051-1.05 1.057 1.057 0 0 0 1.05 1.05ZM0 23.647v6.369a2.087 2.087 0 0 0 2.087 2.086h23.812a2.087 2.087 0 0 0 2.087-2.086V15.587H0v6.393h2.955l3.554 4.561L12.127 17l4.745 5.829h3.866a1.996 1.996 0 0 1 3.785.462 2.002 2.002 0 0 1-1.968 2.364 1.996 1.996 0 0 1-1.81-1.16H16.08l-3.732-4.584L6.701 29.5l-4.56-5.853H0Z" fill="#85ACB0"/><path fill-rule="evenodd" clip-rule="evenodd" d="M24 0a8 8 0 1 0 0 16 8 8 0 0 0 0-16Z" fill="#FF444F" style="mix-blend-mode:multiply"/><path fill-rule="evenodd" clip-rule="evenodd" d="M22.867 11.335 20 8.468l1.202-1.202 1.665 1.666L26.798 5 28 6.202l-5.133 5.133Z" fill="#fff"/></svg>
